X:1
T:Humphrey's -- Hornpipe
R:hornpipe
B:Cole's 1000 Fiddle Tunes
M:2/4
L:1/16
K:D
((3ABc)|d2(dA) BAFG|"4"AFGE D2("4"DA,)|\
B,"4"DA,"4"D B,"4"DA,G|FGFD EFG"4"A|
d2(dA) BAFG|"4"AFGE D2("4"DA,)|\
B,"4"DA,D B,DA,G|FDEC "4"D2:|
|:(uFG)|vA3uB .B.A.F.A|Adfd "4"edBA|vA3uB A2(dc)|BAGF F2E2|
D3F BAFG|Addf edBA|DFFA Adde|faef d2:|
